X:249
T:Le grant desir d'aymer my  tient (Chanson 25)
C:Manuscript de Bayeux (fin XVe)
R:Chanson
S:from bay25.MID
M:4/4
L:1/8
Q:1/4=80
K:F 
V:1
A4 A2 A2 | A2 G2 F2zF | G3A FE/2D/2 E2 | D2zD F2 G2 | 
A3A A2 G2 | F2zA2<c2d | c3c A2 A2 | F3F G4 | 
A3/2G/2 F/2E/2G FE/2D/2 E2 | D8 |]
V:2
D4 D2 D2 | D4 D2 D2 | G4 F2 E2 | D4 D2 D2 | 
D4 D2 D2 | D4 G4 | G4 A2 A2 | F4 D4 | 
D2 D2 F2 E2 | D4 D4 |]





